packages/core/src/svgs/networks/mono/avalanche.svg

<svg width="24" height="24" viewBox="0 0 24 24" fill="none" xmlns="http://www.w3.org/2000/svg">
<path d="M7.01712 20.3988H3.65728C2.95002 20.3988 2.60003 20.3988 2.38859 20.2728C2.27548 20.2046 2.18119 20.1113 2.11366 20.0006C2.04614 19.89 2.00738 19.7654 2.00069 19.6373C1.98756 19.3979 2.16255 19.1096 2.51254 18.5271L10.8129 4.68039C11.1688 4.09242 11.3496 3.79843 11.5756 3.69063C11.6953 3.63144 11.8282 3.60059 11.9628 3.60059C12.0975 3.60059 12.2302 3.63144 12.35 3.69063C12.5745 3.79843 12.7495 4.09242 13.0995 4.68039L14.813 7.49986L14.8188 7.51246C15.1002 7.91144 15.3234 8.34542 15.4808 8.80179C15.5756 9.16158 15.5756 9.55216 15.4808 9.91754C15.3231 10.3784 15.1004 10.8164 14.8188 11.2195L10.4571 18.5159L10.444 18.5398C10.2209 18.9751 9.9336 19.3798 9.59383 19.7395C9.30013 20.0028 8.94742 20.1976 8.56288 20.3093C8.20706 20.3988 7.81187 20.3988 7.01712 20.3988ZM15.5129 20.3988H20.3252C21.0441 20.3988 21.3999 20.3988 21.6129 20.2673C21.7257 20.1989 21.8198 20.1054 21.887 19.9949C21.9542 19.8842 21.9927 19.7597 21.9993 19.6318C22.0124 19.3979 21.8433 19.1221 21.5064 18.5748L21.4685 18.5159L19.0565 14.6158L19.0317 14.5681C18.6934 14.0278 18.5184 13.7521 18.2997 13.6441C18.1811 13.5848 18.0493 13.5537 17.9154 13.5537C17.7817 13.5537 17.6499 13.5848 17.5312 13.6441C17.3066 13.7521 17.1316 14.0404 16.7816 14.6158L14.3682 18.5216V18.5341C14.0124 19.1081 13.8374 19.3979 13.8505 19.6318C13.8574 19.7604 13.896 19.8855 13.9632 19.9971C14.0303 20.1085 14.1242 20.203 14.2369 20.2728C14.444 20.3988 14.7998 20.3988 15.5129 20.3988Z" fill="white"/>
</svg>

<svg xmlns="http://www.w3.org/2000/svg" width="24" height="24" fill="none" viewBox="0 0 24 24">
    <path fill="#fff" d="M7.017 20.399h-3.36c-.707 0-1.057 0-1.268-.126A.8.8 0 0 1 2.114 20 .8.8 0 0 1 2 19.637c-.013-.24.162-.527.512-1.11l8.3-13.847c.356-.588.537-.882.763-.99a.88.88 0 0 1 .774 0c.225.108.4.402.75.99l1.713 2.82.006.012c.281.4.504.833.662 1.29.095.36.095.75 0 1.116a5.2 5.2 0 0 1-.662 1.302l-4.362 7.296-.013.024c-.223.435-.51.84-.85 1.2a2.65 2.65 0 0 1-1.031.57c-.356.089-.751.089-1.546.089m8.496 0h4.812c.72 0 1.075 0 1.288-.132a.8.8 0 0 0 .274-.272.8.8 0 0 0 .112-.363c.013-.234-.156-.51-.493-1.057l-.038-.06-2.411-3.9-.025-.047c-.339-.54-.514-.816-.732-.924a.86.86 0 0 0-.769 0c-.224.108-.4.396-.75.972l-2.413 3.906v.012c-.356.574-.53.864-.518 1.098a.8.8 0 0 0 .113.365.8.8 0 0 0 .274.276c.207.126.563.126 1.276.126"/>
</svg>
